X:245
T: Mungo Kelly
S: "Ceol Rince na hEireann" 1/152
Z: B.Black
L: 1/8
M: 4/4
R: reel
K: Edor
BA|GEBE GEDE|GEBE G2 BA|GEDE G2 Bd|efge d2 BA|
GEBE GEDE|GEBE G2 BA|GEDE G2 Bd|efge d2||
BA|Bdef g2 fg|eaaf gfed|Bdef g2 fg|afge d2 BA|
Bdef g2 fg|eaaf g2 fg|afge defg|afge dBAB||
